!!!COM: Schubert, Franz
!!!CNT: Deutscher
!!!TXO: Deutsch
!!!LYR: August Graf von Platen-Hallermu2nde
!!!OTL: "Du liebst mich nicht""
!!!OPS: Op. 59
!!!ONM: No. 1
!!!ODT: 1822/
!!NB: Vocal melody only encoded.
!!NB: Original key a minor
**kern	**silbe
*staff1	*
*clefG2	*
*k[b-e-]	*
*M3/4	*
*MM[Massig]	*
=1	=1
2.r	.
=2	=2
2.r	.
=3	=3
2.r	.
=4	=4
4r	.
4r	.
8r	.
{8g	{Mein
=5	=5
2g	Herz
8.g	ist
16g	zer-
=6	=6
8.g	-ris-
16a	|
4.g	-sen,
8g	du
=7	=7
4.b-	liebst
8a	|
8g	mich
8f#	|
=8	=8
2g}	nicht!}
8r	.
{8d	{Du
=9	=9
2g	lie-
8g	-ssest
8g	mich's
=10	=10
8.g	wis-
16a	|
4g	-sen,
8r	.
8dd	du
=11	=11
4.b-	liebst
8a	|
8g	mich
8f#	|
=12	=12
2g}	nicht!}
8r	.
{8a	{Wei-
=13	=13
2b-	-wohl
8.cc	ich
16b-	dir
=14	=14
4g	fle-
4f}	-hend}
8r	.
{8a	{und
=15	=15
2b-	wer-
8.cc	-bend
16b-	er-
=16	=16
4g	-schien,
8f}	|}
4r	.
{8f	{und
=17	=17
2cc	lie-
8.dd-	-be-
16cc	-be-
=18	=18
4a-	-flis-
4g}	-sen,}
8r	.
{8dd-	{du
=19	=19
4.dd-	liebst
8cc-	|
8b-	mich
8a-	|
=20	=20
2g-}	nicht!}
8r	.
{8a-	{Du
=21	=21
2a	hast
8a	es
8a	ge-
=22	=22
8.b-	-spro-
16a	|
4e-}	-chen}
8r	.
{8a	{mit
=23	=23
4.cc	Wor-
8g	|
8.a	-ten
16g	ge-
=24	=24
2f}	-sagt,}
8r	.
{8g	{mit
=25	=25
2a	all-
8a	-zu
8a	ge-
=26	=26
8.b-	-wis-
16a	|
4en}	-sen,}
8r	.
{8cc-	{du
=27	=27
4.cc-	liebst
8dd-	|
8cc-	mich
8b--	|
=28	=28
2a-}	nicht!}
4r	.
=29	=29
4r	.
8r	.
{8a-	{So
8a-	soll
16a-	ich
16a-	die
=30	=30
4cc-	Ster-
8a-	-ne,
8a-	so
8a-	soll
16a-	ich
16a-	den
=31	=31
4cc-	Mond,
8a-	|
8cc-	die
8ccn	Son-
16b-	-ne
16an	ver-
=32	=32
4a	-mis-
8b-	-sen?
8dd	du
8.cc	liebst
16b-	mich
=33	=33
4.a}	nicht!}
{8a	{Was
8a	blu2ht
16a	mir
16a	die
=34	=34
4cc	Ro-
8a	-se?
8a	was
8a	blu2ht
16a	der
16a	Jas-
=35	=35
4cc	-min?
8a	|
8cc	was
8dd-	blu2hn
16cc-	die
16b-	Nar-
=36	=36
4b-	-zis-
8cc-}	-sen?}
{8ee-	{du
8dd-	liebst,
8b-	du
=37	=37
4.dd	liebst
8cc	|
8b-	mich
8a	|
=38	=38
8g}	nicht,}
4r	.
{8ee-	{du
8.dd-	liebst,
16b-	du
=39	=39
4.dd	liebst
8cc	|
8b-	mich
8a	|
=40	=40
4.g}	nicht.}
{8bn	{So
8cc	soll
16b	ich
16a	die
=41	=41
4bn	Ster-
8dd	-ne,
8b	so
8cc	soll
16b	ich
16a	den
=42	=42
4bn	Mond,
8dd	|
8b	die
8een	Son-
16ee	-ne
16ee	ver-
=43	=43
2een	-mis-
8dd	-sen?
8cc	du
=44	=44
4.bn	liebst,
8b-	du
aq	liebst
8.dd	|
16f#	mich
=45	=45
4.g}	nicht!}
{8bn	{Was
8cc	blu2ht
16b	mir
16a	die
=46	=46
4bn	Ro-
8dd	-se?
8b	was
8cc	blu2ht
16b	der
16a	Jas-
=47	=47
4bn	-min,
8dd	|
8b	was
8een	blu2hn
16ee	die
16ee	Nar-
=48	=48
2een	-zis-
8dd	-sen?
8cc	du
=49	=49
4.bn	liebst,
8b-	du
aq	liebst
[4dd	|
=50	=50
8dd]	|
8cc#	mich
4.dd}	nicht,}
{8een	{du
=51	=51
4.dd	liebst,
8een	du
8.dd	liebst
16f#	mich
=52	=52
2g}	nicht!}
4r	.
==	==
*-	*-